X: 32612
T: Planxty Wilkinson
R: jig
M: 6/8
K: Dmajor
|:FBB def|a2 c Ace|f2 e d2 c|B2 A FEE|
FBB def|agf edc|dcB Ace|d2 B B3:|
|:Aaa agf|ecB Ace|Bbb bfd|bge f3|
a2 A Ace|agf edc|dcB Ace|d2 B B3:|

